assets/src/dashboard/icons/checkmark.svg

<svg fill="none" height="13" viewBox="0 0 18 13" width="18" xmlns="http://www.w3.org/2000/svg"><path d="m6.00001 10.1701-3.47-3.47003c-.38999-.39-1.02-.39-1.41 0-.389995.39-.389995 1.02 0 1.41l4.18 4.18003c.39.39 1.02.39 1.41 0l10.57999-10.58003c.39-.39.39-1.020002 0-1.410002-.39-.3899996-1.02-.3899996-1.41 0z" fill="#000"/></svg>

<svg width="18" height="13" viewBox="0 0 18 13" fill="none" xmlns="http://www.w3.org/2000/svg">
<path d="M6.00001 10.1701L2.53001 6.70007C2.14002 6.31007 1.51001 6.31007 1.12001 6.70007C0.730015 7.09007 0.730015 7.72007 1.12001 8.11007L5.30001 12.2901C5.69001 12.6801 6.32001 12.6801 6.71001 12.2901L17.29 1.71007C17.68 1.32007 17.68 0.690068 17.29 0.300068C16.9 -0.0899316 16.27 -0.0899316 15.88 0.300068L6.00001 10.1701Z" fill="black"/>
</svg>
